src/assets/icons/search.svg

<svg xmlns="http://www.w3.org/2000/svg" fill="none" viewBox="0 0 42 42"><circle cx="21" cy="21" r="21" fill="#4A4A4A"/><g clip-path="url(#clip0)"><path fill="#fff" d="M27.1209 24.8086c1.288-1.7589 2.0584-3.9193 2.0584-6.2614 0-5.8629-4.7702-10.63314-10.6331-10.63314-5.8629 0-10.63311 4.77024-10.63311 10.63314 0 5.8629 4.77021 10.6331 10.63311 10.6331 2.3421 0 4.5027-.7705 6.2616-2.0585l6.966 6.966 2.3132-2.3132-6.9661-6.966zm-8.5747 1.1c-4.0593 0-7.3614-3.3021-7.3614-7.3614s3.3021-7.3614 7.3614-7.3614 7.3614 3.3021 7.3614 7.3614-3.3021 7.3614-7.3614 7.3614z"/></g><defs><clipPath id="clip0"><path fill="#fff" d="M7.91309 7.91309h26.1739v26.1739H7.91309z"/></clipPath></defs></svg>

<svg width="42" height="42" viewBox="0 0 42 42" fill="none" xmlns="http://www.w3.org/2000/svg">
<circle cx="21" cy="21" r="21" fill="#4A4A4A"/>
<g clip-path="url(#clip0)">
<path d="M27.1209 24.8086C28.4089 23.0497 29.1793 20.8893 29.1793 18.5472C29.1793 12.6843 24.4091 7.91406 18.5462 7.91406C12.6833 7.91406 7.91309 12.6843 7.91309 18.5472C7.91309 24.4101 12.6833 29.1803 18.5462 29.1803C20.8883 29.1803 23.0489 28.4098 24.8078 27.1218L31.7738 34.0878L34.087 31.7746C34.087 31.7746 27.1209 24.8086 27.1209 24.8086ZM18.5462 25.9086C14.4869 25.9086 11.1848 22.6065 11.1848 18.5472C11.1848 14.4879 14.4869 11.1858 18.5462 11.1858C22.6055 11.1858 25.9076 14.4879 25.9076 18.5472C25.9076 22.6065 22.6055 25.9086 18.5462 25.9086Z" fill="white"/>
</g>
<defs>
<clipPath id="clip0">
<rect x="7.91309" y="7.91309" width="26.1739" height="26.1739" fill="white"/>
</clipPath>
</defs>
</svg>
